assets/sonr-icons/pin.svg

<svg xmlns="http://www.w3.org/2000/svg" width="24" height="24" fill="none" viewBox="0 0 24 24"><path fill="#000" fill-rule="evenodd" d="M14.6567 1.69396C14.1637 1.59456 13.6474 1.69119 13.2223 1.97106C12.9039 2.18044 12.7135 2.4731 12.5814 2.71756C12.4543 2.95266 12.3265 3.25146 12.1888 3.57339L11.1506 5.99699L11.1234 6.06003C11.1191 6.06982 11.1157 6.07762 11.1129 6.08397L11.1047 6.09995C11.0903 6.11497 11.0701 6.13525 11.0282 6.1772L9.53019 7.6752C9.46477 7.74062 9.43242 7.77279 9.40806 7.79551L9.40659 7.79688L9.40302 7.79774C9.3704 7.80546 9.32534 7.81464 9.23467 7.83288L5.67193 8.54583C5.25213 8.62985 4.87445 8.70543 4.57789 8.79344C4.27988 8.88188 3.89464 9.02736 3.60317 9.3556L3.60237 9.35651C3.23047 9.77639 3.06105 10.3375 3.13686 10.892L3.13702 10.8932C3.19704 11.3284 3.43712 11.6636 3.63595 11.9026C3.8348 12.1415 4.10854 12.4152 4.41283 12.7195L7.16487 15.4715L2.41219 20.2242C2.03729 20.5991 2.03729 21.2069 2.41219 21.5818C2.78709 21.9567 3.39493 21.9567 3.76983 21.5818L8.52251 16.8292L11.2735 19.5802C11.5778 19.8845 11.8515 20.1582 12.0905 20.3571C12.3294 20.5559 12.6646 20.796 13.0998 20.856L13.101 20.8562C13.6556 20.932 14.2166 20.7626 14.6365 20.3907L14.6374 20.3899C14.9657 20.0984 15.1112 19.7131 15.1996 19.4151C15.2876 19.1186 15.3632 18.7409 15.4472 18.3211L16.1604 14.7573C16.1785 14.6666 16.1876 14.622 16.1952 14.5901L16.196 14.5866L16.1975 14.585C16.2174 14.5637 16.2445 14.5362 16.2948 14.4859C16.2948 14.4859 16.2948 14.4859 16.2948 14.4859C16.302 14.4787 16.3097 14.471 16.3178 14.4628L17.8158 12.9648C17.8211 12.9596 17.826 12.9547 17.8306 12.9501C17.8628 12.9179 17.8799 12.9009 17.8931 12.8884L17.8943 12.8872L17.899 12.885C17.9179 12.8763 17.945 12.8645 17.9971 12.842L17.9983 12.8415L20.4196 11.8042C20.7416 11.6665 21.0404 11.5387 21.2755 11.4117C21.5201 11.2795 21.8134 11.0881 22.0228 10.7694C22.3011 10.345 22.3987 9.83051 22.2991 9.33629L22.2986 9.33393C22.2223 8.96048 22.0214 8.67511 21.8434 8.46159C21.6736 8.25789 21.4455 8.02983 21.1997 7.78411L16.2011 2.7855C15.9585 2.54335 15.733 2.31814 15.5318 2.15026C15.3189 1.97266 15.0333 1.77085 14.6591 1.69443L14.6567 1.69396ZM11.1129 6.08397L13.2223 1.97106L11.1066 6.09793L11.107 6.09696C11.1087 6.09341 11.1106 6.08918 11.1129 6.08397ZM14.3319 3.52974C14.3319 3.52974 14.3142 3.5508 14.2781 3.5747L14.467 2.63502L14.2749 3.57561C14.2317 3.56678 14.2069 3.55346 14.2069 3.55346C14.2069 3.55346 14.2302 3.5664 14.2824 3.60866L14.2704 3.63048C14.1911 3.77732 14.0982 3.99157 13.9417 4.35757L12.9154 6.75305L12.9033 6.78135C12.8716 6.85542 12.8276 6.95825 12.7706 7.05642C12.7219 7.14097 12.6677 7.21968 12.6115 7.29088C12.5413 7.37965 12.4631 7.45781 12.4021 7.51865L10.8878 9.03284L10.8627 9.05809C10.7674 9.15374 10.6484 9.27321 10.5065 9.37248L10.5031 9.37488C10.3859 9.45615 10.2528 9.53011 10.1026 9.58767C9.94341 9.64946 9.77913 9.68215 9.64936 9.70797L6.09448 10.4193C5.61859 10.5146 5.32735 10.5738 5.12414 10.6341C5.1111 10.638 5.09905 10.6417 5.08793 10.6452C5.09293 10.6515 5.09825 10.658 5.1039 10.6649C5.10647 10.668 5.10911 10.6712 5.11182 10.6745C5.24735 10.8373 5.45685 11.0482 5.79983 11.3912L12.6018 18.1932C12.9448 18.5362 13.1557 18.7457 13.3186 18.8812C13.329 18.8899 13.3387 18.8978 13.3478 18.9051C13.3503 18.8975 13.3528 18.8894 13.3554 18.8808C13.3565 18.8769 13.3577 18.873 13.3589 18.8689C13.4192 18.6657 13.4784 18.3745 13.5737 17.8986L14.2777 14.3807L14.2843 14.3473C14.3108 14.2138 14.3434 14.0493 14.4063 13.8881C14.462 13.7441 14.5344 13.6106 14.6182 13.4899L14.6205 13.4865C14.7198 13.3447 14.8393 13.2257 14.9349 13.1304L14.9602 13.1052L16.4743 11.591C16.5352 11.53 16.6128 11.4522 16.7016 11.382C16.7742 11.3247 16.8552 11.2689 16.9417 11.2195L16.9474 11.2163C17.043 11.1625 17.138 11.1216 17.2244 11.0843L17.24 11.0776L19.635 10.0516C20.001 9.89502 20.2157 9.80197 20.3625 9.72261L20.3846 9.71046L20.3686 9.69095C20.2616 9.56256 20.0972 9.39685 19.8152 9.11484L14.8788 4.17841C14.5963 3.8965 14.4306 3.73204 14.3018 3.62453L14.2824 3.60866C14.3152 3.55029 14.3319 3.52974 14.3319 3.52974Z" clip-rule="evenodd"/></svg>

<svg xmlns="http://www.w3.org/2000/svg" width="24" height="24" fill="none"><path fill="currentColor" fill-rule="evenodd" d="M14.657 1.694a1.92 1.92 0 0 0-1.435.277c-.318.21-.508.502-.64.747-.128.235-.256.533-.393.855L11.15 5.997l-.028.063-.01.024-.008.016-.077.077L9.53 7.675l-.122.12-.001.002h-.004l-.168.036-3.563.713c-.42.084-.798.16-1.094.247-.298.089-.683.234-.975.563-.373.42-.542.982-.466 1.536v.001c.06.435.3.77.499 1.01.199.239.473.512.777.816l2.752 2.753-4.753 4.752a.96.96 0 1 0 1.358 1.358l4.753-4.753 2.75 2.751c.305.305.579.578.818.777.238.199.574.439 1.009.499h.001a1.92 1.92 0 0 0 1.535-.465l.001-.001c.329-.292.474-.677.563-.975.088-.296.163-.674.247-1.094l.713-3.564.035-.167.001-.003.002-.002c.02-.021.046-.049.097-.1l.023-.022 1.498-1.498.015-.015.062-.062h.001l.005-.003.098-.043h.001l2.422-1.038c.322-.138.62-.265.855-.392.245-.133.538-.324.748-.643a1.92 1.92 0 0 0 .276-1.433v-.002c-.077-.374-.278-.659-.456-.872-.17-.204-.398-.432-.643-.678L16.2 2.786c-.242-.243-.468-.468-.67-.636-.212-.177-.498-.38-.872-.456zm-3.544 4.39 2.11-4.113-2.116 4.127v-.001zm3.219-2.554s-.018.02-.054.045l.189-.94-.192.94c-.043-.008-.068-.022-.068-.022s.023.013.075.056l-.012.021c-.079.147-.172.362-.328.728l-1.027 2.395-.012.028a1.955 1.955 0 0 1-.501.737l-1.514 1.515-.025.025c-.096.096-.215.215-.356.314l-.004.003c-.117.081-.25.155-.4.213-.16.061-.324.094-.454.12l-3.555.711a13 13 0 0 0-1.006.226l.024.03c.135.162.345.373.688.716l6.802 6.802a13 13 0 0 0 .746.712l.007-.024.004-.012c.06-.203.12-.494.215-.97l.704-3.518.006-.034c.027-.133.06-.298.122-.459q.085-.216.212-.398l.002-.004c.1-.141.22-.26.315-.356l.025-.025 1.514-1.514c.061-.061.139-.139.228-.209q.109-.087.24-.162l.005-.004c.096-.053.191-.094.277-.132l.016-.006 2.395-1.026c.366-.157.58-.25.727-.33l.023-.012-.016-.02a10 10 0 0 0-.554-.575L14.88 4.178a11 11 0 0 0-.577-.553l-.02-.016a1 1 0 0 1 .05-.08" clip-rule="evenodd"/></svg>
